!!!OTL: 'T Zigareweckler (1-46), S. 116f
!!!id: K1094
**kern
*clefG2
*k[]
*C:
{8e
8f
=1
4g
4g
8g
8cc
8b
8a
=2
4a
4g
4g}
=3
{8g
8a
=4
4f
4f
8f
8a
8g
8f
=5
4f
4e
4e}
=6
{8c
8e
=7
4g
4g
8g
8ee
8dd
8cc
=8
4dd
4a
8a}
=9
{8cc
8b
8a
=10
4.g
8a
4f
4d
=11
4c}
4r
=12
{4e
16g
8g
16cc
=13
4e
16g
16g
8cc
4e
4g
=14
4.f}
=15
{8f
4d
8f
8f
=16
4d
8f
8f
4e
4a
=17
2g}
8r
=18
{8g
8a
8b
=19
8dd
8cc
8b
8cc
8.f
16f
8f}
=20
{8g
=21
8b
16a
16a
8g
8a
8.e
16e
8e}
=22
{8e
=23
4g
8g
8a
4f
8f
8g
=24
2e}
8r
=25
{8g
8a
8b
=26
8dd
8cc
8b
8cc
8.f
16f
8f}
=27
{8g
=28
8b
16a
16a
8g
8a
8.e
16e
8e}
=29
{8e
=30
4g
8g
8a
4f
8f
8g
=31
2e}
4r
==
*-
!!!minrhy: 16
!!!meters: 4/4 ]  ZZ[12
!!!cut: 'T Zigareweckler (1-46), S. 116f
!!!reg: Luxemburg
!!!trd: KINTZELE, Guillaume: An der Ucht, Bd. 1, Luxemburg 1926
!!!rhy1: X_X_  X__X__X_X_X_X_  X__X__X__   (x2)
!!!rhy2: X_X_  X__X__X_X_X_X_  X__X__X__
!!!key: K1094  16  C 4/4 ]  ZZ[12
!!!mod: HEPTATONIK IONISCH]  AMBITUS[10
!!!kad: 536145433433
!!!akz: 5565_4443_55+26_541_3334_2235_+24_73_543_+24_73_543_
!!!fot: 'a__b__c__d__bs"as"e__f__dw_e__f__dw_
!!!for: 'a__a__av_b__c__d__e__f__g__e__f__gv_
!!!fok: '^a_\__^a_\__/__Va_^d_^d_^__^d_^d_^__
!! PHRAS[AUFTAKTIG]
!!!fkt: Arbeits-, Berufslied
!!!bem: in der Quelle mit einer 2. Stimme versehen
!! KINTZELE
!! PR[27] 2K[8] 2G[15] 3K[10] 3G[0] 4A[3] 4Ü[0] 5A[2] 6K[0] 6G[0]
!! 7K[0] 7G[0] 8A[0] MEHR[0] SI[38] ABS[60] SR[23] SP[15]
!! ST[16] 2k[10] 2g[10] 3k[10] 3g[3] 4d[2] 4ü[0] 5d[0] 6k[0] 6g[0]
!! 7k[0] 7g[0] 8d[0] mehr[0] si[35] dm[+3] sr[20] sp[15]
!! 1F[62] 2F[30] 3F[0] 4F[0] LF[0] 2P[8] 3P[0] 4P[0] TRI[0] DF[3] AB[66]
!! TF[0] U3K[0] U3[0] U4[0] U4Ü[0] U5[3] U6K[0] U6[0] U7K[0] U7[3]
!! N1[16] N2K[0] N2[23] N3K[0] N3[16] N4[5] N4Ü[10] N5[21] N6K[0] N6[2]
!!!n7k: 0] N7[0] O1[0] O2K[0] O2[0] O3K[0] O3[0] HÖ[0
